/* XPM */
static char *result[] = {
/* columns rows colors chars-per-pixel */
"16 16 9 1 ",
"  c black",
". c red",
"X c #808000",
"o c yellow",
"O c cyan",
"+ c #808080",
"@ c #C0C0C0",
"# c white",
"$ c None",
/* pixels */
"$$$$$$$$$$$$$$$$",
"$$$$$$$$$$$$$$$$",
"$$+++++$$$$$$$$$",
"$+O@O@O+$$$$$$$$",
"+O@O@O@O++++++$$",
"+############+ $",
"+#O@O@O@O@O@O+ $",
"+#.....O@O@O@+ $",
"+#.@.@.@O@XXX+ $",
"+#@O.O@O@Ooo@+ $",
"+#O@.@O@.@ooo+ $",
"+#@O.O....ooo+ $",
"+#O@O@O@.@O@O+ $",
"++++++++++++++ $",
"$              $",
"$$$$$$$$$$$$$$$$"
};
