/* XPM */
static char *result[] = {
/* columns rows colors chars-per-pixel */
"16 16 6 1 ",
"  c black",
". c blue",
"X c cyan",
"o c #808080",
"O c #C0C0C0",
"+ c None",
/* pixels */
"++++++++++++++++",
"+            +++",
"+ ++++++++++ o++",
"+ +++   ++++ o++",
"+ ++ +X+ +++ o++",
"+ + +X+XO ++ o++",
"+ + X+XOX ++ o++",
"+ + +XOXO ++ o++",
"+ ++ OXO oo+ o++",
"+ +++   oO.. o++",
"+ + +++++ X..o++",
"+ +o++++++ X..++",
"+ +Oo +++++ X..+",
"+ ++++++++++   +",
"+            o++",
"++oooooooooooo++"
};
