/* XPM */
static char *_1090_7dd9e28839a9ef998f000d712601983e19417d986cd0c0294610709c1d9ca410[] = {
/* columns rows colors chars-per-pixel */
"16 16 2 1 ",
"  c black",
". c None",
/* pixels */
"................",
".... ...........",
".... ...........",
"................",
".... ...........",
".... ...........",
"................",
".... ...........",
".... ...........",
"................",
".... ..... .....",
".... ...... ....",
"....    .    ...",
"........... ....",
".......... .....",
"................"
};
