/* XPM */
static char *_8066_1691848f9adce3143224c123524fa5a92e76929277199048c82b8645f6568c5c[] = {
/* columns rows colors chars-per-pixel */
"16 16 2 1 ",
"  c black",
". c None",
/* pixels */
"................",
"........ .......",
"........ .......",
"........ .......",
"........ .......",
"........ .......",
"........ .......",
"........ .......",
".... ... ... ...",
"....  .. ..  ...",
".....  . .  ....",
"......     .....",
".......   ......",
"........ .......",
"................",
"................"
};
