/* XPM */
static char * C:\Users\Alex\dev\visualize\hps\samples\qt_sandbox\Resources\toolfly_image_xpm[] = {
"128 128 946 2",
"  	c None",
". 	c #197987",
"+ 	c #137584",
"@ 	c #0E7181",
"# 	c #0B6F7F",
"$ 	c #096E7E",
"% 	c #076D7D",
"& 	c #076C7D",
"* 	c #086E7D",
"= 	c #0D7180",
"- 	c #0E7281",
"; 	c #217D8B",
"> 	c #1F7C8A",
", 	c #1C7988",
"' 	c #227E8C",
") 	c #418F9C",
"! 	c #78B0B9",
"~ 	c #AFD0D5",
"{ 	c #B6D4D8",
"] 	c #B5D4D8",
"^ 	c #B4D3D7",
"/ 	c #B3D2D7",
"( 	c #B8D5D9",
"_ 	c #86B8C0",
": 	c #157685",
"< 	c #0F7381",
"[ 	c #0C7180",
"} 	c #1F7B8A",
"| 	c #1D7A89",
"1 	c #368997",
"2 	c #65A5AE",
"3 	c #A1C8CE",
"4 	c #D0E3E6",
"5 	c #E5EFF1",
"6 	c #E6F0F1",
"7 	c #E1EDEF",
"8 	c #DFECEE",
"9 	c #DEECEE",
"0 	c #E0EDEF",
"a 	c #7AB0B9",
"b 	c #2B818F",
"c 	c #A4C9CE",
"d 	c #117483",
"e 	c #26808D",
"f 	c #0A707F",
"g 	c #3D8E9A",
"h 	c #29828F",
"i 	c #086E7E",
"j 	c #167786",
"k 	c #177886",
"l 	c #197887",
"m 	c #28818F",
"n 	c #4C96A1",
"o 	c #80B5BC",
"p 	c #B4D2D7",
"q 	c #D3E6E8",
"r 	c #DEEBED",
"s 	c #DDEAED",
"t 	c #DDEBED",
"u 	c #DCE9EC",
"v 	c #DBEAEC",
"w 	c #DCEAEC",
"x 	c #CCE1E4",
"y 	c #42909C",
"z 	c #5499A4",
"A 	c #CDE2E4",
"B 	c #B9D7DA",
"C 	c #46939E",
"D 	c #DCEBED",
"E 	c #84B7BF",
"F 	c #1C7A88",
"G 	c #127383",
"H 	c #117382",
"I 	c #187886",
"J 	c #368996",
"K 	c #67A5B0",
"L 	c #9DC4CB",
"M 	c #C0D9DD",
"N 	c #CCE0E4",
"O 	c #CBDFE2",
"P 	c #CBE0E2",
"Q 	c #CFE2E5",
"R 	c #D3E5E8",
"S 	c #D6E7E9",
"T 	c #D8E8EA",
"U 	c #D8E7EA",
"V 	c #D7E8EA",
"W 	c #D7E7E9",
"X 	c #DAE9EB",
"Y 	c #A5CAD0",
"Z 	c #28808E",
"` 	c #8BBDC3",
" .	c #D9EAEB",
"..	c #D2E5E7",
"+.	c #B0D1D5",
"@.	c #076E7D",
"#.	c #44929E",
"$.	c #D4E5E8",
"%.	c #D6E6E9",
"&.	c #D5E7E9",
"*.	c #D9E9EB",
"=.	c #4C96A2",
"-.	c #0B707F",
";.	c #0F7281",
">.	c #227D8B",
",.	c #4C97A2",
"'.	c #83B7BE",
").	c #B0D0D5",
"!.	c #C5DCE0",
"~.	c #C7DDE0",
"{.	c #C2DBDF",
"].	c #C1DADE",
"^.	c #C1DBDE",
"/.	c #C3DCDF",
"(.	c #C8DEE1",
"_.	c #CEE2E4",
":.	c #D1E3E6",
"<.	c #D2E4E7",
"[.	c #D3E4E7",
"}.	c #D3E5E7",
"|.	c #73ACB6",
"1.	c #378A97",
"2.	c #BEDBDD",
"3.	c #DBECED",
"4.	c #D5E8E9",
"5.	c #D3E7E9",
"6.	c #9EC7CC",
"7.	c #418E9A",
"8.	c #D0E2E6",
"9.	c #CFE3E6",
"0.	c #6FABB4",
"a.	c #096F7E",
"b.	c #177786",
"c.	c #167785",
"d.	c #378996",
"e.	c #6BA7B0",
"f.	c #9CC4CA",
"g.	c #B9D5D9",
"h.	c #C1DADD",
"i.	c #BED8DB",
"j.	c #BCD7DA",
"k.	c #BBD6DA",
"l.	c #BDD8DC",
"m.	c #C2DADE",
"n.	c #CBE0E3",
"o.	c #CDE1E4",
"p.	c #BED9DC",
"q.	c #47939F",
"r.	c #68A6B0",
"s.	c #DDEEEE",
"t.	c #D8ECEC",
"u.	c #D8EBEB",
"v.	c #B7D6DA",
"w.	c #579DA7",
"x.	c #CDE2E5",
"y.	c #6CA9B2",
"z.	c #2B8390",
"A.	c #26808E",
"B.	c #1A7987",
"C.	c #2C8390",
"D.	c #569BA6",
"E.	c #89B8BF",
"F.	c #AECED3",
"G.	c #BDD6DA",
"H.	c #BCD6DA",
"I.	c #B8D4D8",
"J.	c #B9D4D8",
"K.	c #CADEE2",
"L.	c #98C2C9",
"M.	c #338895",
"N.	c #9FC8CD",
"O.	c #E7F3F3",
"P.	c #DFF0F0",
"Q.	c #DEEFEF",
"R.	c #DCEDEE",
"S.	c #B8D6DA",
"T.	c #559AA6",
"U.	c #096F7F",
"V.	c #388B98",
"W.	c #308693",
"X.	c #2A8390",
"Y.	c #328794",
"Z.	c #4F97A2",
"`.	c #7BB1B9",
" +	c #A3C8CE",
".+	c #B8D4D9",
"++	c #B7D4D8",
"@+	c #B7D3D8",
"#+	c #BDD7DB",
"$+	c #C7DDE1",
"%+	c #C9DFE1",
"&+	c #67A6AF",
"*+	c #42919D",
"=+	c #CFE4E6",
"-+	c #EAF5F4",
";+	c #E4F3F2",
">+	c #E2F1F1",
",+	c #E0EFF0",
"'+	c #B8D5DA",
")+	c #559BA6",
"!+	c #3E8E9A",
"~+	c #3A8D99",
"{+	c #4E97A2",
"]+	c #72ABB4",
"^+	c #99C3C8",
"/+	c #B3D2D6",
"(+	c #B8D3D8",
"_+	c #BFD9DD",
":+	c #C6DDE1",
"<+	c #B3D1D6",
"[+	c #71ACB5",
"}+	c #EBF4F5",
"|+	c #EDF6F6",
"1+	c #E9F5F5",
"2+	c #E6F3F2",
"3+	c #E4F2F2",
"4+	c #569CA7",
"5+	c #529AA5",
"6+	c #45919E",
"7+	c #6DA9B2",
"8+	c #93BFC5",
"9+	c #BAD5D9",
"0+	c #BCD7DB",
"a+	c #8BBAC2",
"b+	c #318693",
"c+	c #AACED3",
"d+	c #F6FBFB",
"e+	c #EEF8F7",
"f+	c #ECF6F7",
"g+	c #E9F5F4",
"h+	c #E8F4F3",
"i+	c #B8D7DB",
"j+	c #5A9EA9",
"k+	c #539AA5",
"l+	c #5199A4",
"m+	c #4E97A3",
"n+	c #579CA7",
"o+	c #96C1C8",
"p+	c #BAD6D9",
"q+	c #5C9FAA",
"r+	c #46939F",
"s+	c #F6FBFA",
"t+	c #F2F9F8",
"u+	c #F0F8F8",
"v+	c #EDF7F6",
"w+	c #BAD8DB",
"x+	c #61A3AD",
"y+	c #549BA6",
"z+	c #5299A5",
"A+	c #6AA8B1",
"B+	c #93C0C7",
"C+	c #BED9DD",
"D+	c #DBE9EC",
"E+	c #C2DBDE",
"F+	c #BCD7DC",
"G+	c #BAD6DA",
"H+	c #BED8DC",
"I+	c #C0DADD",
"J+	c #C5DDE0",
"K+	c #A9CCD1",
"L+	c #388A97",
"M+	c #78AFB8",
"N+	c #F2F8F8",
"O+	c #F7FCFB",
"P+	c #F4FBF9",
"Q+	c #F2FAF9",
"R+	c #EFF8F8",
"S+	c #BDD8DD",
"T+	c #4F98A3",
"U+	c #5FA1AB",
"V+	c #83B6BE",
"W+	c #B1D1D6",
"X+	c #E7F0F2",
"Y+	c #E6F0F2",
"Z+	c #C9DEE1",
"`+	c #BDD8DB",
" @	c #C9DDE2",
".@	c #85B6BF",
"+@	c #FDFEFD",
"@@	c #F8FCFB",
"#@	c #F6FCFA",
"$@	c #F3F9FA",
"%@	c #EFF7F8",
"&@	c #EDF6F7",
"*@	c #BEDADE",
"=@	c #5EA2AB",
"-@	c #599EA9",
";@	c #549AA5",
">@	c #5098A4",
",@	c #589DA8",
"'@	c #73AEB6",
")@	c #A0C7CD",
"!@	c #CBE0E4",
"~@	c #E4EEF0",
"{@	c #E9F1F3",
"]@	c #E4EFF1",
"^@	c #E3EEF0",
"/@	c #CBE1E3",
"(@	c #CADFE2",
"_@	c #C6DCE0",
":@	c #BAD5DA",
"<@	c #C0DADE",
"[@	c #C3DBDF",
"}@	c #60A2AC",
"|@	c #FBFDFC",
"1@	c #F7FBFB",
"2@	c #F4F9FA",
"3@	c #F0F7F9",
"4@	c #EEF7F8",
"5@	c #C0DADF",
"6@	c #81B5BD",
"7@	c #CEE1E4",
"8@	c #CEE2E5",
"9@	c #6DAAB3",
"0@	c #71ABB4",
"a@	c #5FA2AC",
"b@	c #6BA8B2",
"c@	c #91BEC5",
"d@	c #E8F0F2",
"e@	c #D7E7EA",
"f@	c #CAE0E2",
"g@	c #C4DCE0",
"h@	c #B9D5D8",
"i@	c #C4DBDF",
"j@	c #C6DDE0",
"k@	c #C8DDE1",
"l@	c #CDE1E3",
"m@	c #ACCFD3",
"n@	c #4B95A1",
"o@	c #87B8C0",
"p@	c #F5F9F9",
"q@	c #FAFCFC",
"r@	c #F8FBFB",
"s@	c #F5F9FA",
"t@	c #F0F6F8",
"u@	c #BFDBDE",
"v@	c #88B9C1",
"w@	c #D0E2E5",
"x@	c #D7E6E9",
"y@	c #77AFB8",
"z@	c #74ADB6",
"A@	c #70AAB4",
"B@	c #77AFB7",
"C@	c #8DBDC4",
"D@	c #B2D2D6",
"E@	c #D5E6E9",
"F@	c #E2EEEF",
"G@	c #BFDADD",
"H@	c #C9DEE2",
"I@	c #C9DFE2",
"J@	c #CAE0E3",
"K@	c #8DBCC3",
"L@	c #BCD8DC",
"M@	c #FEFEFE",
"N@	c #FBFCFC",
"O@	c #EFF6F7",
"P@	c #EEF6F7",
"Q@	c #8CBCC3",
"R@	c #D2E3E6",
"S@	c #D4E6E8",
"T@	c #D5E6E8",
"U@	c #DCEAED",
"V@	c #72ACB5",
"W@	c #76AEB7",
"X@	c #8CBBC3",
"Y@	c #ADCED4",
"Z@	c #E3EDF0",
"`@	c #E4EEF1",
" #	c #E2EEF0",
".#	c #6BA9B2",
"+#	c #FCFDFD",
"@#	c #F9FCFC",
"##	c #F3F9F9",
"$#	c #EEF5F7",
"%#	c #EEF4F6",
"&#	c #D9E8EB",
"*#	c #E3EFF0",
"=#	c #76AFB7",
"-#	c #79B1B9",
";#	c #77AEB7",
">#	c #75ADB6",
",#	c #85B7BF",
"'#	c #A1C7CE",
")#	c #DAE9EC",
"!#	c #CCE0E3",
"~#	c #97C2C9",
"{#	c #F7FAFA",
"]#	c #FAFBFC",
"^#	c #F8FBFC",
"/#	c #F5FAFB",
"(#	c #F1F8F8",
"_#	c #EDF4F6",
":#	c #ECF3F5",
"<#	c #B9D7DB",
"[#	c #D5E5E8",
"}#	c #E0EDEE",
"|#	c #E6F1F2",
"1#	c #77B0B8",
"2#	c #7BB2BA",
"3#	c #7FB4BC",
"4#	c #B9D5DA",
"5#	c #CEE1E5",
"6#	c #C3DCE0",
"7#	c #FBFCFD",
"8#	c #F8FCFC",
"9#	c #F6FAFB",
"0#	c #EAF3F5",
"a#	c #E8F2F3",
"b#	c #B6D6DA",
"c#	c #9AC4CA",
"d#	c #E1EEEF",
"e#	c #E2EFF0",
"f#	c #91BEC6",
"g#	c #8EBCC4",
"h#	c #8ABBC2",
"i#	c #84B6BE",
"j#	c #87B8C1",
"k#	c #98C3C9",
"l#	c #F0F6F7",
"m#	c #F1F7F8",
"n#	c #E9F2F4",
"o#	c #D2E4E6",
"p#	c #D1E4E6",
"q#	c #C9DFE3",
"r#	c #6AA7B0",
"s#	c #FDFEFE",
"t#	c #FAFCFD",
"u#	c #F7FBFC",
"v#	c #ECF5F5",
"w#	c #E5F0F1",
"x#	c #B4D4D9",
"y#	c #9FC7CE",
"z#	c #DEEBEE",
"A#	c #EAF2F3",
"B#	c #79B0B9",
"C#	c #94C0C8",
"D#	c #93BFC7",
"E#	c #91BFC6",
"F#	c #8FBEC6",
"G#	c #99C3CA",
"H#	c #D5E7EA",
"I#	c #F1F6F7",
"J#	c #FAFDFD",
"K#	c #EEF5F6",
"L#	c #DAE8EC",
"M#	c #D8E8EB",
"N#	c #D8E7EB",
"O#	c #ACCFD4",
"P#	c #5198A4",
"Q#	c #99C3C9",
"R#	c #F7FAFB",
"S#	c #FCFEFE",
"T#	c #F9FBFD",
"U#	c #E8F3F3",
"V#	c #B2D3D8",
"W#	c #A4CAD0",
"X#	c #92BFC6",
"Y#	c #90BEC6",
"Z#	c #AECFD5",
"`#	c #CEE2E6",
" $	c #EAF2F4",
".$	c #FFFFFF",
"+$	c #FEFFFE",
"@$	c #FBFDFD",
"#$	c #EAF3F4",
"$$	c #E5F0F2",
"%$	c #DEECED",
"&$	c #C1DADF",
"*$	c #F1F6F8",
"=$	c #ECF4F5",
"-$	c #DEEDEE",
";$	c #B0D2D6",
">$	c #A8CCD2",
",$	c #90BEC5",
"'$	c #94C0C7",
")$	c #A4CACF",
"!$	c #F3F8F9",
"~$	c #EDF5F6",
"{$	c #E7F1F3",
"]$	c #559BA7",
"^$	c #63A4AE",
"/$	c #FCFDFE",
"($	c #F3F8F8",
"_$	c #EEF6F6",
":$	c #E2EFF1",
"<$	c #DCEBEC",
"[$	c #AED0D5",
"}$	c #ABCED3",
"|$	c #9BC4CB",
"1$	c #B6D4D9",
"2$	c #FAFDFC",
"3$	c #F6F9FB",
"4$	c #F1F7F7",
"5$	c #E8F1F3",
"6$	c #A3C9CF",
"7$	c #3E8D9A",
"8$	c #90BDC5",
"9$	c #F6F9FA",
"0$	c #F5FAFA",
"a$	c #F0F7F8",
"b$	c #EBF5F6",
"c$	c #E6F1F3",
"d$	c #D8E9EB",
"e$	c #ABCED4",
"f$	c #AECFD4",
"g$	c #92C0C6",
"h$	c #C6DEE1",
"i$	c #FCFEFD",
"j$	c #DFEBEE",
"k$	c #41909C",
"l$	c #F8FDFD",
"m$	c #F4FAFA",
"n$	c #EEF7F7",
"o$	c #E9F3F4",
"p$	c #E3EFF1",
"q$	c #DDEBEE",
"r$	c #D8EAEB",
"s$	c #A9CCD2",
"t$	c #AFD1D6",
"u$	c #E6EFF1",
"v$	c #89BAC1",
"w$	c #E3F0F1",
"x$	c #F6FAFA",
"y$	c #F2F7F8",
"z$	c #EBF4F4",
"A$	c #E7F1F2",
"B$	c #4A95A1",
"C$	c #F8FDFC",
"D$	c #F2F9F9",
"E$	c #ECF6F5",
"F$	c #E6F2F3",
"G$	c #E0EEF0",
"H$	c #D5E9EA",
"I$	c #A7CCD1",
"J$	c #B1D2D7",
"K$	c #E7F0F3",
"L$	c #7EB4BC",
"M$	c #7DB3BB",
"N$	c #7EB3BC",
"O$	c #B2D2D7",
"P$	c #F2F7F9",
"Q$	c #EFF5F6",
"R$	c #EDF4F5",
"S$	c #EBF3F4",
"T$	c #E9F2F3",
"U$	c #97C2C8",
"V$	c #8DBCC4",
"W$	c #F9FEFD",
"X$	c #EAF5F5",
"Y$	c #E4F1F2",
"Z$	c #A6CBD0",
"`$	c #B4D4D8",
" %	c #EBF3F5",
".%	c #F9FBFC",
"+%	c #81B6BD",
"@%	c #086F7E",
"#%	c #70ABB5",
"$%	c #80B5BD",
"%%	c #F4F8FA",
"&%	c #F3F7F9",
"*%	c #F2F8F9",
"=%	c #F3F7F8",
"-%	c #F5F8F9",
";%	c #5EA1AB",
">%	c #BBD7DC",
",%	c #FBFEFE",
"'%	c #F9FDFD",
")%	c #F5FBFA",
"!%	c #E8F4F4",
"~%	c #E1F0F0",
"{%	c #DCEBEE",
"]%	c #D0E5E6",
"^%	c #CAE1E3",
"/%	c #A3CACF",
"(%	c #B9D6DB",
"_%	c #F4F9F9",
":%	c #F5F8FA",
"<%	c #83B7BF",
"[%	c #67A6B0",
"}%	c #BFDADE",
"|%	c #29818F",
"1%	c #FAFEFD",
"2%	c #E6F3F3",
"3%	c #E0EFEF",
"4%	c #DAEBED",
"5%	c #C9E0E2",
"6%	c #BDD9DD",
"7%	c #85B8BF",
"8%	c #4894A0",
"9%	c #B5D3D9",
"0%	c #0F7180",
"a%	c #F9FDFC",
"b%	c #F6FCFB",
"c%	c #EBF5F5",
"d%	c #D9EAEC",
"e%	c #C7DEE1",
"f%	c #9CC5CC",
"g%	c #5099A4",
"h%	c #5DA0AB",
"i%	c #8CBCC4",
"j%	c #44909C",
"k%	c #187585",
"l%	c #EFF7F7",
"m%	c #DCECEE",
"n%	c #D6E9EA",
"o%	c #CCDFE3",
"p%	c #96C2C8",
"q%	c #64A4AE",
"r%	c #B0D1D6",
"s%	c #187584",
"t%	c #F3FAF9",
"u%	c #D4E7E9",
"v%	c #C4DADE",
"w%	c #8FBDC4",
"x%	c #44919D",
"y%	c #3F8F9B",
"z%	c #73ACB5",
"A%	c #0A6B7C",
"B%	c #7AB1B9",
"C%	c #ECF6F6",
"D%	c #C2D9DE",
"E%	c #88B9C0",
"F%	c #B3D3D8",
"G%	c #2E8592",
"H%	c #27808E",
"I%	c #368A96",
"J%	c #7CB2BB",
"K%	c #398996",
"L%	c #1A7785",
"M%	c #B4D3D8",
"N%	c #E5F2F3",
"O%	c #DAEAEC",
"P%	c #C2D9DD",
"Q%	c #1D7B89",
"R%	c #157584",
"S%	c #127382",
"T%	c #E2EDEF",
"U%	c #EAF6F6",
"V%	c #E5F1F2",
"W%	c #DFEDEF",
"X%	c #CADFE3",
"Y%	c #C1D9DD",
"Z%	c #7EB3BB",
"`%	c #AFD0D6",
" &	c #0A6F7E",
".&	c #167685",
"+&	c #5EA0AA",
"@&	c #66A5AF",
"#&	c #0A6D7D",
"$&	c #7FB3BC",
"%&	c #E9F4F5",
"&&	c #D5E9EB",
"*&	c #ACCED4",
"=&	c #88BAC1",
"-&	c #2E8491",
";&	c #1C7887",
">&	c #B7D5D9",
",&	c #F9FBFB",
"'&	c #E5F2F2",
")&	c #D6E8EA",
"!&	c #6FAAB3",
"~&	c #0D7281",
"{&	c #4D96A2",
"]&	c #B1D2D6",
"^&	c #0D6F7F",
"/&	c #46929E",
"(&	c #E2F0F0",
"_&	c #D7E9EB",
":&	c #CEE3E5",
"<&	c #63A3AD",
"[&	c #066D7D",
"}&	c #78B1B9",
"|&	c #D2E5E8",
"1&	c #589CA7",
"2&	c #076B7B",
"3&	c #F7FBFA",
"4&	c #EFF6F6",
"5&	c #EBF6F5",
"6&	c #E3F0F2",
"7&	c #D4E7E8",
"8&	c #D0E4E6",
"9&	c #569CA6",
"0&	c #9EC6CC",
"a&	c #3F8F9A",
"b&	c #247D8C",
"c&	c #1B7886",
"d&	c #F0F7F7",
"e&	c #E0EEEF",
"f&	c #D7E9EA",
"g&	c #D2E7E8",
"h&	c #BEDADD",
"i&	c #197886",
"j&	c #C7DEE2",
"k&	c #0B6E7F",
"l&	c #F0F7F6",
"m&	c #EDF5F5",
"n&	c #E9F4F4",
"o&	c #E6F2F2",
"p&	c #E2F0F1",
"q&	c #DDECEE",
"r&	c #BEDCDE",
"s&	c #0C707F",
"t&	c #0C7080",
"u&	c #398B98",
"v&	c #147584",
"w&	c #F8FAFB",
"x&	c #EDF6F5",
"y&	c #E7F2F2",
"z&	c #DFEEEF",
"A&	c #DBEBED",
"B&	c #D7EAEB",
"C&	c #9BC5CC",
"D&	c #137483",
"E&	c #1B7A88",
"F&	c #2F8593",
"G&	c #72ADB6",
"H&	c #C8DFE2",
"I&	c #F7F9FB",
"J&	c #F5FAF9",
"K&	c #F3F9F8",
"L&	c #EEF7F6",
"M&	c #E8F3F4",
"N&	c #E1EFF1",
"O&	c #257F8D",
"P&	c #318694",
"Q&	c #398C98",
"R&	c #5FA1AC",
"S&	c #F6F8FA",
"T&	c #F0F8F7",
"U&	c #DEECEF",
"V&	c #C1DBDF",
"W&	c #ABCFD3",
"X&	c #549BA5",
"Y&	c #62A3AD",
"Z&	c #F4F7F9",
"`&	c #E7F2F3",
" *	c #C2DCDF",
".*	c #69A8B1",
"+*	c #6FA9B3",
"@*	c #D6E7EA",
"#*	c #F2F8F7",
"$*	c #E4F0F1",
"%*	c #68A7B0",
"&*	c #FEFFFF",
"**	c #93BFC6",
"=*	c #F4FBFA",
"-*	c #E4F1F1",
";*	c #BDDADE",
">*	c #64A5AE",
",*	c #74ACB6",
"'*	c #EAF4F4",
")*	c #E9F4F3",
"!*	c #E1EEF0",
"~*	c #BBD8DD",
"{*	c #AED1D6",
"]*	c #E3F1F2",
"^*	c #C6DFE2",
"/*	c #589EA8",
"(*	c #9AC5CB",
"_*	c #A0C8CE",
":*	c #E1EFF0",
"<*	c #DFECEF",
"[*	c #DEEBEF",
"}*	c #A9CED3",
"|*	c #589DA7",
"1*	c #D0E4E7",
"2*	c #70ABB4",
"3*	c #C5DEE2",
"4*	c #DAECED",
"5*	c #DBECEE",
"6*	c #DBEAED",
"7*	c #93C1C7",
"8*	c #82B6BE",
"9*	c #BBD8DC",
"0*	c #D6EAEB",
"a*	c #DAEBEC",
"b*	c #CDE3E4",
"c*	c #B6D5D8",
"d*	c #90BCC3",
"e*	c #6CA8B1",
"f*	c #9DC6CC",
"g*	c #5B9FAA",
"h*	c #5299A4",
"i*	c #A2C9CF",
"j*	c #CEE4E6",
"k*	c #D0E6E8",
"l*	c #5A9FA9",
"m*	c #7EB4BB",
"n*	c #CBE2E3",
"o*	c #C2DDDE",
"p*	c #BBD8DB",
"q*	c #B5D2D7",
"r*	c #AACBD0",
"s*	c #9FC3C9",
"t*	c #7EAFB6",
"u*	c #5397A2",
"v*	c #7DB2BA",
"w*	c #4B96A1",
"x*	c #C2DDE0",
"y*	c #C7E1E2",
"z*	c #CAE2E4",
"A*	c #CDE4E6",
"B*	c #D2E6E8",
"C*	c #D3E7E8",
"D*	c #92BEC5",
"E*	c #C7DFE1",
"F*	c #C0DCDF",
"G*	c #BAD6DB",
"H*	c #B4D1D6",
"I*	c #9EC4C9",
"J*	c #90BABF",
"K*	c #89B4BB",
"L*	c #207C8A",
"M*	c #328895",
"N*	c #72ADB5",
"O*	c #C5DFE1",
"P*	c #C9E1E3",
"Q*	c #CBE3E4",
"R*	c #CEE3E6",
"S*	c #CFE5E6",
"T*	c #A6CACF",
"U*	c #C4DDE0",
"V*	c #B3D0D5",
"W*	c #AACAD0",
"X*	c #95BEC3",
"Y*	c #3F8D98",
"Z*	c #0C6F80",
"`*	c #0A6F7F",
" =	c #3F8E9A",
".=	c #227D8C",
"+=	c #A9CBD1",
"@=	c #C0DBDE",
"#=	c #C3DEE1",
"$=	c #CCE2E4",
"%=	c #CDE3E5",
"&=	c #187887",
"*=	c #BDDADD",
"==	c #ABCAD0",
"-=	c #A2C5CB",
";=	c #64A3AC",
">=	c #0F7382",
",=	c #358895",
"'=	c #9BC4CA",
")=	c #177685",
"!=	c #43909C",
"~=	c #C3DFE1",
"{=	c #ABCDD2",
"]=	c #BCD8DB",
"^=	c #B7D5D8",
"/=	c #B1CFD5",
"(=	c #8BB8BF",
"_=	c #1E7B8A",
":=	c #207C8B",
"<=	c #85B8C0",
"[=	c #0D7181",
"}=	c #89B8C0",
"|=	c #96C1C7",
"1=	c #2E818F",
"2=	c #C8DCE0",
"3=	c #B6D3D7",
"4=	c #B0CED4",
"5=	c #A7C8CE",
"6=	c #257E8C",
"7=	c #2B8391",
"8=	c #2D8491",
"9=	c #6FAAB4",
"0=	c #237E8C",
"a=	c #B9D4D9",
"b=	c #C3DADF",
"c=	c #C5DBDF",
"d=	c #B8D5D8",
"e=	c #B4D1D5",
"f=	c #B3CFD4",
"g=	c #47929E",
"h=	c #338894",
"i=	c #86B9C0",
"j=	c #68A5AF",
"k=	c #5FA2AB",
"l=	c #BBD5D9",
"m=	c #B7D3D7",
"n=	c #B5D2D6",
"o=	c #73AAB3",
"p=	c #87B9C0",
"q=	c #117482",
"r=	c #A7CACF",
"s=	c #BBD6DB",
"t=	c #C0D8DC",
"u=	c #45929D",
"v=	c #81B5BC",
"w=	c #BED6DB",
"x=	c #BAD4D9",
"y=	c #B6D2D7",
"z=	c #98C1C7",
"A=	c #107382",
"B=	c #A1C7CD",
"C=	c #8ABAC2",
"D=	c #0B7080",
"E=	c #44909D",
"F=	c #BFD8DC",
"G=	c #BED7DB",
"H=	c #C3DBDE",
"I=	c #328592",
"J=	c #9CC2C9",
"K=	c #B0CFD3",
"L=	c #8EBDC4",
"M=	c #91BDC4",
"N=	c #BDD5D9",
"O=	c #BBD6D9",
"P=	c #267F8D",
"Q=	c #ADCCD2",
"R=	c #4A95A0",
"S=	c #29818E",
"T=	c #BAD4D8",
"U=	c #247F8C",
"V=	c #76ADB7",
"W=	c #348895",
"X=	c #2C8492",
"Y=	c #70AAB3",
"Z=	c #A6C8CE",
"`=	c #318593",
" -	c #BCD4D9",
".-	c #9BC3CA",
"+-	c #599EA8",
"@-	c #62A4AD",
"#-	c #6AA7B1",
"$-	c #ABCBD1",
"%-	c #95BEC5",
"&-	c #45919D",
"*-	c #B6D0D5",
"=-	c #5CA0AA",
"--	c #4B94A0",
";-	c #4C95A0",
">-	c #82B3BC",
",-	c #64A3AD",
"'-	c #4E96A1",
")-	c #67A7B0",
"!-	c #8BBBC3",
"~-	c #D1E4E7",
"{-	c #43919C",
"]-	c #45909D",
"^-	c #48949F",
"/-	c #6EAAB3",
"(-	c #6FABB5",
"_-	c #61A2AC",
":-	c #65A5AF",
"<-	c #5B9FA9",
"                                                                                                                                                                                                                                                                ",
"                                                                                                                                                                                                                                                                ",
"                                                                                                                                                                                                                                                                ",
"                                                                                                                                                                                                                                                                ",
"                                                                                                                                                                                                                                                                ",
"                                                                                                                                                                                                                                                                ",
"                                                                                                                                                                                                                                                                ",
"                                                                                                                                                                                                                                                                ",
"                                                                                                                                                                                                                                                                ",
"                                                                                                                                                                                                                                                                ",
"                                                                                                                                                                                                                                                                ",
"                                                                                                                                                                                                                                                                ",
"                                                                                                                                                                                                                                                                ",
"                                                                                                                                                                                                                                                                ",
"                                                                                                                                                                                                                                                                ",
"                                                                                                                                                                                                                                                                ",
"                                                                                                                                                                                                                                                                ",
"                                                                                                                                                                                                                                                                ",
"                                                                                                                                                                                                                                                                ",
"                                                                                                                                                                                                                                                                ",
"                                                                                                                                                                                                                                                                ",
"                                                                                                                                                                                                                                                                ",
"                                                                                                                                                                                                                                                                ",
"                                                                                                                                                                                                  . + @ # $ % & % * = -                                         ",
"                                                                                                                                                                                          ; > , ' ) ! ~ { ] ^ / ( _ : <     [ =                                 ",
"                                                                                                                                                                                    } | ; 1 2 3 4 5 6 7 8 8 9 0 a b c d e f g h i -                             ",
"                                                                                                                                                                            j k l m n o p q r s t t t u v w x y z A B - f C r D E F f                           ",
"                                                                                                                                                                    G G H I J K L M N O P Q R S T U V W X Y Z `  ...+.@.#.$.%.&.*.4 =.-.                        ",
"                                                                                                                                                              ;.= ;.>.,.'.).!.~.{.].^.^./.(._.:.<.<.[.}.|.1.2.3.4.5.6.7.Q 8.4 4 9.$.0.a.                        ",
"                                                                                                                                                      b.H = c.d.e.f.g.h.i.j.j.j.k.k.k.k.l.m.(.n.o.4 p.q.r.3.s.t.u.v.w.o.o.x.x.x.o.<.y.a.                        ",
"                                                                                                                                              z.A.| B.C.D.E.F.G.H.I.I.I.I.I.I.I.I.I.I.J.k.M !.K.Q L.M.N.O.P.Q.R.S.T.n.o.o.o.o.o.o.:.y.U.                        ",
"                                                                                                                                        V.W.X.Y.Z.`. +.+k.I.++++++++++++++@+++++++++@+g.#+].$+%+&+*+=+-+;+>+,+'+)+n.o.o.o.o.o.o.o.:.y.U.                        ",
"                                                                                                                                ) !+V.~+{+]+^+/+H.g.++++++++++++++++++++++++++++@+(+g.H._+:+<+!+[+}+|+1+2+3+S.4+N o.o.o.o.o.o.o.o.:.y.U.                        ",
"                                                                                                                        5+{+6+) {+7+8+F.9+9+++++++++++++++++++++++++++++++@+@+(+I.9+0+_+$+a+b+c+d+e+f+g+h+i+j+o.o.o.o.o.o.o.o.o.o.:.y.U.                        ",
"                                                                                                                  k+l+m+n+0.o+++$+!.#+I.++++++++++++++++++++++++++++@+@+(+I.g.p+k.l.].M q+r+v s+t+u+v+-+w+x+o.o.o.o.o.o.o.o.o.o.o.:.y.U.                        ",
"                                                                                                          y+z+m+k+A+B+C+V D+[.n.$+E+F+g.@+++++++++++++++++++++@+@+(+J.g.G+k.0+H+I+J+K+L+M+N+O+P+Q+R+|+S+y.o.o.o.o.o.o.o.o.o.o.o.o.:.y.U.                        ",
"                                                                                                  y+k+T+T+U+V+W+S X+Y+7 D S 4 n.Z+{._+G+I.@+++++++++++++@+@+(+I.g.G+k.`+p.I+].{. @.@Y.+.+@@@#@$@%@&@*@M+o.o.o.o.o.o.o.o.o.o.o.o.o.:.y.U.                        ",
"                                                                                          =@-@;@>@,@'@)@!@~@{@Y+5 ]@^@7 D %.:./@(@_@].#+9+(+@+++++@+@+(+I.g.:@k.#+p.<@m.[@!.(.m.}@l+r |@@@1@2@3@4@5@6@7@o.o.o.o.o.o.o.o.o.o.o.7@8@[.9@a.                        ",
"                                                                                    0@A+a@q+b@c@l.s {@d@5 5 5 5 5 ]@^@7 t e@<.x f@Z+g@<@#+G+g.h@I.h@g.9+k.0+H+I+^.i@j@k@Z+l@m@n@o@p@|@q@r@s@t@4@u@v@o.o.o.o.o.7@8@8@Q Q w@w@:.:.<.x@0.a.                        ",
"                                                                            M+y@z@A@B@C@D@E@X+{@5 5 5 5 5 5 5 5 5 ]@^@F@9 *.$.Q /@f@Z+g@]._+l.0+j.0+l.H+G@].{.!.k@H@I@J@x K@{+L@M@N@q@1@2@O@P@C+Q@8@8@8@Q w@w@:.R@<.[.}.S@T@E@%.e@U@V@a.                        ",
"                                                                    M+M+W@z@a X@Y@x.Z@{@Y+5 5 5 5 5 5 5 5 5 5 5 5 5 `@ #0 U@e@<.8@n.f@H@j@[@{.].].].E+[@!.$+Z+(@J@n.x.[@y..#]@+#q@@#1@##$#%#L@c@:.4 :.<.[.$.S@%.%.T T &#X D+D+U@t *#=#a.                        ",
"                                                              -#;#>#W@,#'#g@s d@X+5 5 5 5 5 5 5 5 5 5 5 5 5 5 5 5 5 ]@^@F@8 )#S [.Q x n.(@I@(.$+$+$+(.H@(@f@!#o.8@[.Y@n+~#{#+#]#^#/#(#_#:#<#o+$.$.[#S e@U &#D+w t r 9 8 8 }#0 7 7 |#1#a.                        ",
"                                                      ,#6@2#B@3#L.4#%.5 d@5 5 5 5 5 5 5 5 5 5 5 5 5 5 5 5 5 5 5 5 5 5 ]@^@7 9 )#e@$.:.Q 5#o./@/@/@/@n.o.5#Q :.[.R X@w.6#M@7#8#9#$@O@0#a#b#c#&#&#X v U@t 9 8 }#7 7 d#F@ # #e#^@^@^@a#! a.                        ",
"                                              f#g#h#i#j#k#G+D l#m#n#5 5 5 5 5 5 5 5 5 5 5 5 5 5 5 5 5 5 5 5 5 5 5 5 5 ]@`@^@7 8 U@*.e@[#}.<.o#p#:.p#<.[.$.T@&#q#r#0.Y+s#t#u#2@m#v#X+w#x#y#z#9 8 8 }#7 7 d# # #^@^@^@]@`@]@]@]@]@5 A#B#a.                        ",
"                                        C#D#E#F#G#] H#I#M@M@J#s@K#a#5 5 5 5 5 5 5 5 5 5 5 5 5 5 5 5 5 5 5 5 5 5 5 5 5 5 ]@`@^@7 0 8 t D+L#&#U M#M#N#&#*.D+8 O#P#Q#R#S#T#9###P@U#~@d#V#W#F@d#d#F@ # #^@^@]@`@]@]@]@]@5 5 5 5 5 5 5 A#B#a.                        ",
"                                C#C#X#Y#L.Z#`# $+#.$.$.$+$s#@$9#l##$$$5 5 5 5 5 5 5 5 5 5 5 5 5 5 5 5 5 5 5 5 5 5 5 5 5 5 ]@]@^@ #F@7 0 }#8 8 9 9 8 8 7 %$6@n &$s#J#^#s@*$=$Y+7 -$;$>$]@^@^@]@]@]@]@]@]@5 5 5 5 5 5 5 5 5 5 5 5 5 A#B#a.                        ",
"                        C#C#D#,$'$)${.d#R#.$.$.$.$.$.$.$.$s#@$r@!$~${$5 5 5 5 5 5 5 5 5 5 5 5 5 5 5 5 5 5 5 5 5 5 5 5 5 5 5 5 ]@]@^@^@^@ # # # # # #w#J@]$^$5 /$q@R#($_$a#:$-$<$[$}$6 ]@5 ]@5 5 5 5 5 5 5 5 5 5 5 5 5 5 5 5 5 5 5 A#B#a.                        ",
"                      C#X#|$1$V l#M@.$.$.$.$.$.$.$.$.$.$.$+$+@2$3$4$}+{$$$5 5 5 5 5 5 5 5 5 5 5 5 5 5 5 5 5 5 5 5 5 5 5 5 5 5 5 5 5 ]@]@]@]@]@]@`@5$6$7$8$9$7#^#0$a$b$c$0 3.d$e$f$6 5 5 5 5 5 5 5 5 5 5 5 5 5 5 5 5 5 5 5 5 5 5 5  $-#a.                        ",
"                  K@,$g$h$@#.$.$.$.$.$.$.$.$.$.$.$.$.$.$.$+$s#i$@#0$m#=$a#Y+$$5 5 5 5 5 5 5 5 5 5 5 5 5 5 5 5 5 5 5 5 5 5 5 5 5 5 5 5 5 5 5 5 6 j$z@k$C+s#t#l$m$n$o$p$q$r$q s$t$u$5 5 5 5 5 5 5 5 5 5 5 5 5 5 5 5 5 5 5 5 5 5 5 $$=$2#a.                        ",
"                ,#v$c#w$.$.$.$.$.$.$.$.$.$.$.$.$.$.$.$.$.$.$+$s#+#@#x$y$$#z$o$a#A$|#Y+Y+$$$$$$$$5 5 5 5 5 5 5 5 5 5 5 5 5 5 5 5 5 5 w#w#$$5  $g@B$a@]@S#t#C$D$E$F$G$)#H$p#I$J$K$$$$$$$$$$$$$$$$$$$$$Y+Y+Y+Y+Y+Y+Y+Y+Y+Y+Y+|#{$a##$y$L$a.                        ",
"            6@M$N$O$R#.$.$.$.$.$.$.$.$.$.$.$.$.$.$.$.$.$.$.$.$+$s#+#q@1@s@P$l#Q$~$R$=$=$}+S$S$#$#$o$T$T$a#a#a#a#a#a#a#a#a#T$T$o$#$#$#$#$#$~$U$Y.V$R#S#W$O+u+X$Y$9 d$q 5#Z$`$=$#$S$S$S$S$S$S$S$ %}+}+=$=$=$=$=$=$=$=$=$=$=$R$K#O@*$.%+%@%                        ",
"          #%z@$%<..$.$.$.$.$.$.$.$.$.$.$.$.$.$.$.$.$.$.$.$.$.$.$+$s#i$+#@#r@R#0$s@%%2@2@!$&%&%&%*%N+m#I#t@t@t@a$t@l#t@t@t@I#m#N+*%P$=%-%Y+;%b+>%+$,%'%)%%@!%~%{%S ]%^%/%(%-%=%&%&%&%&%&%&%&%!$!$_%##########2@##########2@:%0$x$1@@$<%@%                        ",
"        U+[%~#O@.$.$.$.$.$.$.$.$.$.$.$.$.$.$.$.$.$.$.$.$.$.$.$.$.$+$+$s#s#i$@$@$2$@#@#@#@#@#@#@#8#8#^#^#^#^#^#u#^#u#^#u#u#r@^#r@@#@#+#}%|%n  #S#1%O+t+&@2%3%4%S@_.5%'#6%t#@#@#@#@#@#@#@#@#@#@#@#@#@#@#@#@#@#@#@#@#@#@#@#@#q@2$@$@$s#7%@%                        ",
"      8%5+U+9%=$.$.$.$.$.$.$.$.$.$.$.$.$.$.$.$.$.$.$.$.$.$.$.$.$.$.$.$+$+$+$s#s#s#s#s#s#s#s#s#s#+@s#i$+@i$+@i$i$i$i$i$i$i$i$i$i$s#R#V+0%M$x$i$a%b%(#c%3+-$d%..o.e%f%6%/$+@s#+@i$s#s#s#s#s#s#s#s#s#s#s#s#s#s#s#s#s#s#s#s#s#s#s#s#+$+$7%@%                        ",
"            g%h%i%9..%.$.$.$.$.$.$.$.$.$.$.$.$.$.$.$.$.$.$.$.$.$.$.$.$.$.$.$.$+$.$+$+$+$+$+$+$+$+$+$+$+$+$+$+$+$+$+$+$+$+$+$+$+$d#j%k%/ M@2$8#m$l%1+w$m%n%p#o%j@p%L@s#+$+$+$+$+$+$+$+$+$+$+$+$+$+$+$+$+$+$+$+$+$+$+$+$+$+$+$+$.$.$.$_ @%                        ",
"                m+{+q%6$ #.$.$.$.$.$.$.$.$.$.$.$.$.$.$.$.$.$.$.$.$.$.$.$.$.$.$.$.$.$.$.$.$.$.$.$.$.$.$.$.$.$.$.$.$.$.$.$.$.$.$r%s%7.0 +#J#s+t%|+U#e#3.u%9.K.v%w%'+s#.$.$.$.$.$.$.$.$.$.$.$.$.$.$.$.$.$.$.$.$.$.$.$.$.$.$.$.$.$.$.$.$_ @%                        ",
"                    x%y%y A+S.!$.$.$.$.$.$.$.$.$.$.$.$.$.$.$.$.$.$.$.$.$.$.$.$.$.$.$.$.$.$.$.$.$.$.$.$.$.$.$.$.$.$.$.$.$.$_%z%A%B%9$@$8#0$D$C%O.d#X S@Q K.D%E%F%s#.$.$.$.$.$.$.$.$.$.$.$.$.$.$.$.$.$.$.$.$.$.$.$.$.$.$.$.$.$.$.$.$.$_ @%                        ",
"                          G%H%I%J%9.s#.$.$.$.$.$.$.$.$.$.$.$.$.$.$.$.$.$.$.$.$.$.$.$.$.$.$.$.$.$.$.$.$.$.$.$.$.$.$.$.$.$*.K%L%M%s#J#@@m$u+C%N%0 O%u%8@H@P%i#r%s#.$.$.$.$.$.$.$.$.$.$.$.$.$.$.$.$.$.$.$.$.$.$.$.$.$.$.$.$.$.$.$.$.$.$_ @%                        ",
"                              Q%b.R%!+|$T$.$.$.$.$.$.$.$.$.$.$.$.$.$.$.$.$.$.$.$.$.$.$.$.$.$.$.$.$.$.$.$.$.$.$.$.$.$.$W#S%j%T%+#@#1@t%R+U%V%W%O%H$9.X%Y%Z%`%s#.$.$.$.$.$.$.$.$.$.$.$.$.$.$.$.$.$.$.$.$.$.$.$.$.$.$.$.$.$.$.$.$.$.$.$_ @%                        ",
"                                    H  &.&+&}%@#.$.$.$.$.$.$.$.$.$.$.$.$.$.$.$.$.$.$.$.$.$.$.$.$.$.$.$.$.$.$.$.$.$l#@&#&$&x$@$8#1@t%l%%&Y$W%v &&4 X%Y%M+*&s#.$.$.$.$.$.$.$.$.$.$.$.$.$.$.$.$.$.$.$.$.$.$.$.$.$.$.$.$.$.$.$.$.$.$.$.$_ @%                        ",
"                                        @ -.* C.=&8 .$.$.$.$.$.$.$.$.$.$.$.$.$.$.$.$.$.$.$.$.$.$.$.$.$.$.$.$.$.$4 -&;&>&+@,&r@s+D$l%g+'&,+U@)&4 !#Y%!&c+M@.$.$.$.$.$.$.$.$.$.$.$.$.$.$.$.$.$.$.$.$.$.$.$.$.$.$.$.$.$.$.$.$.$.$.$.$.$_ @%                        ",
"                                              ~&i ;.{&]&p@.$.$.$.$.$.$.$.$.$.$.$.$.$.$.$.$.$.$.$.$.$.$.$.$.$s#o+^&/&^@|@@#1@d+!$l%-+N%(&t _&..:&_+<&W#M@.$.$.$.$.$.$.$.$.$.$.$.$.$.$.$.$.$.$.$.$.$.$.$.$.$.$.$.$.$.$.$.$.$.$.$.$.$.$_ @%                        ",
"                                                  - [ [&; }&|&M@.$.$.$.$.$.$.$.$.$.$.$.$.$.$.$.$.$.$.$.$.$ %1&2&$&x$2$r@3&0$($4&5&O.6&-$ .7&8&G@9&0&M@.$.$.$.$.$.$.$.$.$.$.$.$.$.$.$.$.$.$.$.$.$.$.$.$.$.$.$.$.$.$.$.$.$.$.$.$.$.$.$_ @%                        ",
"                                                      - - a.-.a&6$~$.$.$.$.$.$.$.$.$.$.$.$.$.$.$.$.$.$.$g@b&c&1$i$r@R#x$p@($d&E$h+V%e&3.f&g&h&{+G#M@.$.$.$.$.$.$.$.$.$.$.$.$.$.$.$.$.$.$.$.$.$.$.$.$.$.$.$.$.$.$.$.$.$.$.$.$.$.$.$.$_ @%                        ",
"                                                            - = @.i&r.j&+#.$.$.$.$.$.$.$.$.$.$.$.$.$q@C@k&/& #q@R#1@d+p@($l&m&n&o&p&q&d%H$r&T+L.M@.$.$.$.$.$.$.$.$.$.$.$.$.$.$.$.$.$.$.$.$.$.$.$.$.$.$.$.$.$.$.$.$.$.$.$.$.$.$.$.$.$_ @%                        ",
"                                                                - @ s&t&u&c#{$.$.$.$.$.$.$.$.$.$.$o$h%v&V+9$w&R#x$0$_%N+l#x&c%y&w$z&A&B&u@4+C&M@.$.$.$.$.$.$.$.$.$.$.$.$.$.$.$.$.$.$.$.$.$.$.$.$.$.$.$.$.$.$.$.$.$.$.$.$.$.$.$.$.$.$_ @%                        ",
"                                                                      D&k E&F&G&H&@#.$.$.$.$.$.$!@n !+_+7#I&x$J&_%K&N+d&L&E$M&V%N&q& .{.}@W#M@.$.$.$.$.$.$.$.$.$.$.$.$.$.$.$.$.$.$.$.$.$.$.$.$.$.$.$.$.$.$.$.$.$.$.$.$.$.$.$.$.$.$.$_ @%                        ",
"                                                                          O&P&Q&!+R&Z$Y+.$.$@#c+)+B#n#.%S&s@_%##t+T&l%L&C%n&V%p&U&O%V&[%W&M@.$.$.$.$.$.$.$.$.$.$.$.$.$.$.$.$.$.$.$.$.$.$.$.$.$.$.$.$.$.$.$.$.$.$.$.$.$.$.$.$.$.$.$.$_ @%                        ",
"                                                                                n@X&,@Y&C@J@Q@r.r%^#1@s@Z&=%N+m#d&O@_$C%%&`&w$W%D  *.*~ M@.$.$.$.$.$.$.$.$.$.$.$.$.$.$.$.$.$.$.$.$.$.$.$.$.$.$.$.$.$.$.$.$.$.$.$.$.$.$.$.$.$.$.$.$.$_ @%                        ",
"                                                                                    q%y.A@+*N$@*J#0$2@!$N+#*d&l%_$|+C%n&|#$*W%m%u@%*t$&*.$.$.$.$.$.$.$.$.$.$.$.$.$.$.$.$.$.$.$.$.$.$.$.$.$.$.$.$.$.$.$.$.$.$.$.$.$.$.$.$.$.$.$.$.$.$_ @%                        ",
"                                                                                        >#;#**1@=*D$(#l%_$|+v#E$v#c%n&o&-*G$q&;*>*r%.$.$.$.$.$.$.$.$.$.$.$.$.$.$.$.$.$.$.$.$.$.$.$.$.$.$.$.$.$.$.$.$.$.$.$.$.$.$.$.$.$.$.$.$.$.$.$.$_ @%                        ",
"                                                                                          M+,*g@a$|+v#c%z$'*)*!%U#`&c$6&!*W%~*}@{*.$.$.$.$.$.$.$.$.$.$.$.$.$.$.$.$.$.$.$.$.$.$.$.$.$.$.$.$.$.$.$.$.$.$.$.$.$.$.$.$.$.$.$.$.$.$.$.$.$_ @%                        ",
"                                                                                            M+3#]*`&`&2%V%V%V%'&V%Y$p$!*9 ^*/*(*.$.$.$.$.$.$.$.$.$.$.$.$.$.$.$.$.$.$.$.$.$.$.$.$.$.$.$.$.$.$.$.$.$.$.$.$.$.$.$.$.$.$.$.$.$.$.$.$.$.$_ @%                        ",
"                                                                                            ;#V@_*w$G$3%:*:*e#:*:*G$<*[*q&}*|*k#f#1*s#.$.$.$.$.$.$.$.$.$.$.$.$.$.$.$.$.$.$.$.$.$.$.$.$.$.$.$.$.$.$.$.$.$.$.$.$.$.$.$.$.$.$.$.$.$.$.$_ @%                        ",
"                                                                                              2*A+3*O%4*3.5*q&q&m%D D 6*A&7*a@1*E+p%8*9*x$.$.$.$.$.$.$.$.$.$.$.$.$.$.$.$.$.$.$.$.$.$.$.$.$.$.$.$.$.$.$.$.$.$.$.$.$.$.$.$.$.$.$.$.$.$_ @%                        ",
"                                                                                                <&-#u%q H$0*r$)#O%d%d%d$a*}&y.b*/.h&c*d*e*f*n#.$.$.$.$.$.$.$.$.$.$.$.$.$.$.$.$.$.$.$.$.$.$.$.$.$.$.$.$.$.$.$.$.$.$.$.$.$.$.$.$.$.$.$_ @%                        ",
"                                                                                                g*h*i*=+j*k*u%H#)&&.)&&.T l*m*n*o*p*q*r*s*t*u*v*&#.$.$.$.$.$.$.$.$.$.$.$.$.$.$.$.$.$.$.$.$.$.$.$.$.$.$.$.$.$.$.$.$.$.$.$.$.$.$.$.$.$_ @%                        ",
"                                                                                                  w*T+x*y*z*A*1*B*B*C*B*S@g D*E*F*G*H*r*I*J*K*L*< )+g@s#.$.$.$.$.$.$.$.$.$.$.$.$.$.$.$.$.$.$.$.$.$.$.$.$.$.$.$.$.$.$.$.$.$.$.$.$.$.$_ @%                        ",
"                                                                                                  w*M*N*h$O*P*Q*R*S*=+=+!#O&T*U*u@G+V*W*s*X*Y*- ;.Z*`* =~ {#.$.$.$.$.$.$.$.$.$.$.$.$.$.$.$.$.$.$.$.$.$.$.$.$.$.$.$.$.$.$.$.$.$.$.$.$_ @%                        ",
"                                                                                                    m .=+=@=#=y*J@$=%=$=_+&=@+E+*=g.V*==-=;==         G >=,='=~$.$.$.$.$.$.$.$.$.$.$.$.$.$.$.$.$.$.$.$.$.$.$.$.$.$.$.$.$.$.$.$.$.$.$_ @%                        ",
"                                                                                                      )=!=M <@~=$+I@5%5%{=, D%<@]=^=/===(=d ;.            _=:=Y.<=8 .$.$.$.$.$.$.$.$.$.$.$.$.$.$.$.$.$.$.$.$.$.$.$.$.$.$.$.$.$.$.$.$_ @%                        ",
"                                                                                                      + [=}=p.@=6#_@~.(.|=1=2=_+G+3=4=5=6=~&                  7=m 8=9=9.s#.$.$.$.$.$.$.$.$.$.$.$.$.$.$.$.$.$.$.$.$.$.$.$.$.$.$.$.$.$_ @%                        ",
"                                                                                                        ;.0=a=l.^.b=c=$+a j%j@0+d=e=f=g=-.                        M.h=M*Y&<@.%.$.$.$.$.$.$.$.$.$.$.$.$.$.$.$.$.$.$.$.$.$.$.$.$.$.$.$i=a.                        ",
"                                                                                                          U.j=#+p.].m.~.k=<&D%l=m=n=o=`*                                y y }@W+y$.$.$.$.$.$.$.$.$.$.$.$.$.$.$.$.$.$.$.$.$.$.$.$.$.$p=#                         ",
"                                                                                                          - q=r=s=t=_+j@u=v=w=x=y=z=A=-                                     k+l+U+B=A$.$.$.$.$.$.$.$.$.$.$.$.$.$.$.$.$.$.$.$.$.$.$.$C=;.                        ",
"                                                                                                            D=E=F=G=#+H=I=J=9+@+K=O&=                                           j+)+1&X@*.M@.$.$.$.$.$.$.$.$.$.$.$.$.$.$.$.$.$.$.$.$L=:                         ",
"                                                                                                            - f M=N=O=H.P=Q=(+9+R=f                                                 j+4+;@B%q#q@.$.$.$.$.$.$.$.$.$.$.$.$.$.$.$.$.$.$C=>                         ",
"                                                                                                              = S=T=h@q*U=@+a=V=`*                                                        ,@z+b@1$!$.$.$.$.$.$.$.$.$.$.$.$.$.$.$.%k#W=X=                        ",
"                                                                                                                a.Y=l=Z=`= -.-A=-                                                             +-y+@-Y n#.$.$.$.$.$.$.$.$.$.$.$|##-u&                            ",
"                                                                                                                - : $-%-&-*-e =                                                                   =-g*Y&~#9 M@.$.$.$.$.$.$.$].--7$                              ",
"                                                                                                                  -.;->-,-'-f                                                                           [%)-!-~-7#.$.$.$x$'${-y                                 ",
"                                                                                                                    - ]- =-.                                                                                y.[%3#}%s@*#0.^-/&                                  ",
"                                                                                                                    ~&[ [ -                                                                                     /-)-(-_-l+                                      ",
"                                                                                                                      - -                                                                                           :-<-                                        ",
"                                                                                                                      -                                                                                                                                         ",
"                                                                                                                                                                                                                                                                ",
"                                                                                                                                                                                                                                                                ",
"                                                                                                                                                                                                                                                                ",
"                                                                                                                                                                                                                                                                ",
"                                                                                                                                                                                                                                                                ",
"                                                                                                                                                                                                                                                                ",
"                                                                                                                                                                                                                                                                ",
"                                                                                                                                                                                                                                                                ",
"                                                                                                                                                                                                                                                                ",
"                                                                                                                                                                                                                                                                ",
"                                                                                                                                                                                                                                                                ",
"                                                                                                                                                                                                                                                                ",
"                                                                                                                                                                                                                                                                ",
"                                                                                                                                                                                                                                                                ",
"                                                                                                                                                                                                                                                                ",
"                                                                                                                                                                                                                                                                ",
"                                                                                                                                                                                                                                                                ",
"                                                                                                                                                                                                                                                                ",
"                                                                                                                                                                                                                                                                ",
"                                                                                                                                                                                                                                                                ",
"                                                                                                                                                                                                                                                                ",
"                                                                                                                                                                                                                                                                ",
"                                                                                                                                                                                                                                                                ",
"                                                                                                                                                                                                                                                                ",
"                                                                                                                                                                                                                                                                ",
"                                                                                                                                                                                                                                                                ",
"                                                                                                                                                                                                                                                                ",
"                                                                                                                                                                                                                                                                ",
"                                                                                                                                                                                                                                                                ",
"                                                                                                                                                                                                                                                                ",
"                                                                                                                                                                                                                                                                ",
"                                                                                                                                                                                                                                                                ",
"                                                                                                                                                                                                                                                                "};
